view/frontend/web/svg/flags/hk.svg

<svg width="24" height="24" viewbox="0 0 20 15" viewBox="0 0 20 15" fill="none" xmlns="http://www.w3.org/2000/svg">
<g clip-path="url(#clip0_270_60905)">
<rect width="20" height="15" fill="white"/>
<path fill-rule="evenodd" clip-rule="evenodd" d="M0 0V15H20V0H0Z" fill="#EA1A1A"/>
<mask id="mask0_270_60905" style="mask-type:luminance" maskUnits="userSpaceOnUse" x="0" y="0" width="20" height="15">
<path fill-rule="evenodd" clip-rule="evenodd" d="M0 0V15H20V0H0Z" fill="white"/>
</mask>
<g mask="url(#mask0_270_60905)">
<g filter="url(#filter0_d_270_60905)">
<path fill-rule="evenodd" clip-rule="evenodd" d="M9.91844 7.23423C9.91844 7.23423 6.29989 4.00719 10.6179 2.12695C10.6179 2.12695 11.8737 3.51234 10.9316 5.06763C10.6225 5.57773 10.3619 5.94199 10.166 6.21573C9.76463 6.77656 9.63519 6.95745 9.91844 7.23423ZM4.57796 4.91719C4.32944 9.62022 8.83378 7.82629 8.83378 7.82629C8.45973 7.95585 8.3558 7.7592 8.03366 7.1497C7.87636 6.85208 7.66703 6.45602 7.34882 5.95144C6.37886 4.41334 4.57796 4.91719 4.57796 4.91719ZM11.3988 7.39191C11.3988 7.39191 16.0438 8.78248 12.9288 12.3148C12.9288 12.3148 11.2042 11.5915 11.3988 9.78375C11.4627 9.19098 11.5445 8.75071 11.606 8.4198L11.606 8.41979L11.606 8.41979C11.732 7.74154 11.7726 7.52271 11.3988 7.39191ZM10.178 8.47606C10.178 8.47606 11.0107 13.2525 6.45854 12.0454C6.45854 12.0454 6.33461 10.1796 8.03866 9.54552C8.59764 9.33749 9.02811 9.21376 9.35161 9.12078C10.0144 8.93028 10.2281 8.86884 10.178 8.47606ZM15.9242 6.42207C13.077 2.6707 10.7961 6.94905 10.7961 6.94905C10.9982 6.60853 11.2045 6.69156 11.8439 6.94889C12.1563 7.07458 12.5719 7.24186 13.1409 7.42167C14.8746 7.9696 15.9242 6.42207 15.9242 6.42207Z" fill="white"/>
</g>
<path d="M6.35078 6.38005C6.35078 6.38005 7.26066 7.81202 8.75071 7.81202" stroke="#EA1A1A" stroke-width="0.625"/>
<path d="M9.91266 4.40639C9.91266 4.40639 9.09611 5.91279 9.79565 7.22843" stroke="#EA1A1A" stroke-width="0.625"/>
<path d="M13.8187 6.10098C13.8187 6.10098 11.9124 5.81198 10.9153 6.91931" stroke="#EA1A1A" stroke-width="0.625"/>
<path d="M12.7052 9.59059C12.7052 9.59059 12.3248 7.70035 10.9432 7.14216" stroke="#EA1A1A" stroke-width="0.625"/>
<path d="M8.70828 10.6167C8.70828 10.6167 10.3544 9.61265 10.4064 8.1235" stroke="#EA1A1A" stroke-width="0.625"/>
</g>
</g>
<defs>
<filter id="filter0_d_270_60905" x="3.56805" y="1.12695" width="13.3561" height="12.1878" filterUnits="userSpaceOnUse" color-interpolation-filters="sRGB">
<feFlood flood-opacity="0" result="BackgroundImageFix"/>
<feColorMatrix in="SourceAlpha" type="matrix" values="0 0 0 0 0 0 0 0 0 0 0 0 0 0 0 0 0 0 127 0" result="hardAlpha"/>
<feOffset/>
<feGaussianBlur stdDeviation="0.5"/>
<feColorMatrix type="matrix" values="0 0 0 0 0.6 0 0 0 0 0 0 0 0 0 0 0 0 0 0.36 0"/>
<feBlend mode="normal" in2="BackgroundImageFix" result="effect1_dropShadow_270_60905"/>
<feBlend mode="normal" in="SourceGraphic" in2="effect1_dropShadow_270_60905" result="shape"/>
</filter>
<clipPath id="clip0_270_60905">
<rect width="20" height="15" fill="white"/>
</clipPath>
</defs>
</svg>

<svg width="24" height="24" viewbox="0 0 20 15" fill="none" xmlns="http://www.w3.org/2000/svg">
  <mask id="a" maskUnits="userSpaceOnUse" x="0" y="0" width="20" height="15">
    <path fill="#fff" d="M0 0h20v15H0z"/>
  </mask>
  <g mask="url(#a)">
    <path fill-rule="evenodd" clip-rule="evenodd" d="M0 0v15h20V0H0z" fill="#EA1A1A"/>
    <mask id="b" maskUnits="userSpaceOnUse" x="0" y="0" width="20" height="15">
      <path fill-rule="evenodd" clip-rule="evenodd" d="M0 0v15h20V0H0z" fill="#fff"/>
    </mask>
    <g mask="url(#b)">
      <g filter="url(#HK_-_Hong_Kong__filter0_d)">
        <path fill-rule="evenodd" clip-rule="evenodd" d="M9.918 7.234s-3.618-3.227.7-5.107c0 0 1.256 1.385.314 2.94-.31.51-.57.875-.766 1.149-.401.56-.53.741-.248 1.018zm-5.34-2.317c-.249 4.703 4.256 2.91 4.256 2.91-.374.129-.478-.068-.8-.677a16.823 16.823 0 00-.685-1.199c-.97-1.538-2.771-1.034-2.771-1.034zm6.82 2.475s4.646 1.39 1.53 4.923c0 0-1.724-.723-1.53-2.531.065-.593.146-1.033.208-1.364.126-.678.167-.897-.207-1.028zm-1.22 1.084s.833 4.776-3.72 3.57c0 0-.123-1.866 1.58-2.5.56-.209.99-.332 1.314-.425.662-.19.876-.252.826-.645zm5.746-2.054c-2.847-3.751-5.128.527-5.128.527.202-.34.409-.257 1.048 0 .312.126.728.293 1.297.473 1.734.548 2.783-1 2.783-1z" fill="#fff"/>
      </g>
      <path d="M6.35 6.38s.91 1.432 2.4 1.432m1.163-3.406s-.817 1.507-.117 2.822m4.023-1.127s-1.907-.289-2.904.818m1.79 2.671s-.38-1.89-1.762-2.448m-2.235 3.475s1.646-1.004 1.698-2.494" stroke="#EA1A1A" stroke-width=".625"/>
    </g>
  </g>
  <defs>
    <filter id="HK_-_Hong_Kong__filter0_d" x="3.568" y="1.127" width="13.356" height="12.188" filterUnits="userSpaceOnUse" color-interpolation-filters="sRGB">
      <feFlood flood-opacity="0" result="BackgroundImageFix"/>
      <feColorMatrix in="SourceAlpha" values="0 0 0 0 0 0 0 0 0 0 0 0 0 0 0 0 0 0 127 0"/>
      <feOffset/>
      <feGaussianBlur stdDeviation=".5"/>
      <feColorMatrix values="0 0 0 0 0.6 0 0 0 0 0 0 0 0 0 0 0 0 0 0.36 0"/>
      <feBlend in2="BackgroundImageFix" result="effect1_dropShadow"/>
      <feBlend in="SourceGraphic" in2="effect1_dropShadow" result="shape"/>
    </filter>
  </defs>
</svg>
